X: 7628
T: Coir A' Cheathaich
R: waltz
M: 3/4
K: Aminor
E A>B|A2 G/ z/ E A>B|c2 d/ z/ c B>A|A2 G/ z/ F E>G|G2 z E A>B|A2 G/ z/ E A>B|
c2 B/ z/ A c>d|e2 e/ z/ f|e>d|d3||A Ad|d2 c/ z/ d e>d|d2 c/ z/ B e>d|
c2 B/ z/ A G>E|G2 z E A>B|c2 B/ z/ c d>c|e2 d/ z/ c B>AG2 A/ z/ c B>A A3||

